X: 209
P: Longways for as many as will
M: C|
L: 1/8
K: Gm
[|\
g2^f>(ef/) g2d2 | b2ag ^f2d2 | g2d2 (cd)(cB) | A6 ^f2 |\
g2d2 d2(cB) | (AB)(AG) ^F2d2 | B2(AG) A2^F2 | G4- G4 |]
[|\
e2c2 f2d2 | b2(ag) ^f2d2 | e2c2 d2^f2 | g4- g4 |]

